assets/Nav/linux.svg

<svg fill="#fff" xmlns="http://www.w3.org/2000/svg" viewBox="0 0 448 512"><!--! Font Awesome Free 6.1.1 by @fontawesome - https://fontawesome.com License - https://fontawesome.com/license/free (Icons: CC BY 4.0, Fonts: SIL OFL 1.1, Code: MIT License) Copyright 2022 Fonticons, Inc. --><path d="M220.8 123.3c1 .5 1.8 1.7 3 1.7 1.1 0 2.8-.4 2.9-1.5.2-1.4-1.9-2.3-3.2-2.9-1.7-.7-3.9-1-5.5-.1-.4.2-.8.7-.6 1.1.3 1.3 2.3 1.1 3.4 1.7zm-21.9 1.7c1.2 0 2-1.2 3-1.7 1.1-.6 3.1-.4 3.5-1.6.2-.4-.2-.9-.6-1.1-1.6-.9-3.8-.6-5.5.1-1.3.6-3.4 1.5-3.2 2.9.1 1 1.8 1.5 2.8 1.4zM420 403.8c-3.6-4-5.3-11.6-7.2-19.7-1.8-8.1-3.9-16.8-10.5-22.4-1.3-1.1-2.6-2.1-4-2.9-1.3-.8-2.7-1.5-4.1-2 9.2-27.3 5.6-54.5-3.7-79.1-11.4-30.1-31.3-56.4-46.5-74.4-17.1-21.5-33.7-41.9-33.4-72C311.1 85.4 315.7.1 234.8 0 132.4-.2 158 103.4 156.9 135.2c-1.7 23.4-6.4 41.8-22.5 64.7-18.9 22.5-45.5 58.8-58.1 96.7-6 17.9-8.8 36.1-6.2 53.3-6.5 5.8-11.4 14.7-16.6 20.2-4.2 4.3-10.3 5.9-17 8.3s-14 6-18.5 14.5c-2.1 3.9-2.8 8.1-2.8 12.4 0 3.9.6 7.9 1.2 11.8 1.2 8.1 2.5 15.7.8 20.8-5.2 14.4-5.9 24.4-2.2 31.7 3.8 7.3 11.4 10.5 20.1 12.3 17.3 3.6 40.8 2.7 59.3 12.5 19.8 10.4 39.9 14.1 55.9 10.4 11.6-2.6 21.1-9.6 25.9-20.2 12.5-.1 26.3-5.4 48.3-6.6 14.9-1.2 33.6 5.3 55.1 4.1.6 2.3 1.4 4.6 2.5 6.7v.1c8.3 16.7 23.8 24.3 40.3 23 16.6-1.3 34.1-11 48.3-27.9 13.6-16.4 36-23.2 50.9-32.2 7.4-4.5 13.4-10.1 13.9-18.3.4-8.2-4.4-17.3-15.5-29.7zM223.7 87.3c9.8-22.2 34.2-21.8 44-.4 6.5 14.2 3.6 30.9-4.3 40.4-1.6-.8-5.9-2.6-12.6-4.9 1.1-1.2 3.1-2.7 3.9-4.6 4.8-11.8-.2-27-9.1-27.3-7.3-.5-13.9 10.8-11.8 23-4.1-2-9.4-3.5-13-4.4-1-6.9-.3-14.6 2.9-21.8zM183 75.8c10.1 0 20.8 14.2 19.1 33.5-3.5 1-7.1 2.5-10.2 4.6 1.2-8.9-3.3-20.1-9.6-19.6-8.4.7-9.8 21.2-1.8 28.1 1 .8 1.9-.2-5.9 5.5-15.6-14.6-10.5-52.1 8.4-52.1zm-13.6 60.7c6.2-4.6 13.6-10 14.1-10.5 4.7-4.4 13.5-14.2 27.9-14.2 7.1 0 15.6 2.3 25.9 8.9 6.3 4.1 11.3 4.4 22.6 9.3 8.4 3.5 13.7 9.7 10.5 18.2-2.6 7.1-11 14.4-22.7 18.1-11.1 3.6-19.8 16-38.2 14.9-3.9-.2-7-1-9.6-2.1-8-3.5-12.2-10.4-20-15-8.6-4.8-13.2-10.4-14.7-15.3-1.4-4.9 0-9 4.2-12.3zm3.3 334c-2.7 35.1-43.9 34.4-75.3 18-29.9-15.8-68.6-6.5-76.5-21.9-2.4-4.7-2.4-12.7 2.6-26.4v-.2c2.4-7.6.6-16-.6-23.9-1.2-7.8-1.8-15 .9-20 3.5-6.7 8.5-9.1 14.8-11.3 10.3-3.7 11.8-3.4 19.6-9.9 5.5-5.7 9.5-12.9 14.3-18 5.1-5.5 10-8.1 17.7-6.9 8.1 1.2 15.1 6.8 21.9 16l19.6 35.6c9.5 19.9 43.1 48.4 41 68.9zm-1.4-25.9c-4.1-6.6-9.6-13.6-14.4-19.6 7.1 0 14.2-2.2 16.7-8.9 2.3-6.2 0-14.9-7.4-24.9-13.5-18.2-38.3-32.5-38.3-32.5-13.5-8.4-21.1-18.7-24.6-29.9s-3-23.3-.3-35.2c5.2-22.9 18.6-45.2 27.2-59.2 2.3-1.7.8 3.2-8.7 20.8-8.5 16.1-24.4 53.3-2.6 82.4.6-20.7 5.5-41.8 13.8-61.5 12-27.4 37.3-74.9 39.3-112.7 1.1.8 4.6 3.2 6.2 4.1 4.6 2.7 8.1 6.7 12.6 10.3 12.4 10 28.5 9.2 42.4 1.2 6.2-3.5 11.2-7.5 15.9-9 9.9-3.1 17.8-8.6 22.3-15 7.7 30.4 25.7 74.3 37.2 95.7 6.1 11.4 18.3 35.5 23.6 64.6 3.3-.1 7 .4 10.9 1.4 13.8-35.7-11.7-74.2-23.3-84.9-4.7-4.6-4.9-6.6-2.6-6.5 12.6 11.2 29.2 33.7 35.2 59 2.8 11.6 3.3 23.7.4 35.7 16.4 6.8 35.9 17.9 30.7 34.8-2.2-.1-3.2 0-4.2 0 3.2-10.1-3.9-17.6-22.8-26.1-19.6-8.6-36-8.6-38.3 12.5-12.1 4.2-18.3 14.7-21.4 27.3-2.8 11.2-3.6 24.7-4.4 39.9-.5 7.7-3.6 18-6.8 29-32.1 22.9-76.7 32.9-114.3 7.2zm257.4-11.5c-.9 16.8-41.2 19.9-63.2 46.5-13.2 15.7-29.4 24.4-43.6 25.5s-26.5-4.8-33.7-19.3c-4.7-11.1-2.4-23.1 1.1-36.3 3.7-14.2 9.2-28.8 9.9-40.6.8-15.2 1.7-28.5 4.2-38.7 2.6-10.3 6.6-17.2 13.7-21.1.3-.2.7-.3 1-.5.8 13.2 7.3 26.6 18.8 29.5 12.6 3.3 30.7-7.5 38.4-16.3 9-.3 15.7-.9 22.6 5.1 9.9 8.5 7.1 30.3 17.1 41.6 10.6 11.6 14 19.5 13.7 24.6zM173.3 148.7c2 1.9 4.7 4.5 8 7.1 6.6 5.2 15.8 10.6 27.3 10.6 11.6 0 22.5-5.9 31.8-10.8 4.9-2.6 10.9-7 14.8-10.4s5.9-6.3 3.1-6.6-2.6 2.6-6 5.1c-4.4 3.2-9.7 7.4-13.9 9.8-7.4 4.2-19.5 10.2-29.9 10.2s-18.7-4.8-24.9-9.7c-3.1-2.5-5.7-5-7.7-6.9-1.5-1.4-1.9-4.6-4.3-4.9-1.4-.1-1.8 3.7 1.7 6.5z"/></svg>

<?xml version="1.0" encoding="utf-8"?>
<svg width="448px" height="512px" viewBox="0 0 448 512" version="1.1" xmlns:xlink="http://www.w3.org/1999/xlink" xmlns="http://www.w3.org/2000/svg">
  <defs>
    <path d="M0 0L448 0L448 512L0 512L0 0Z" id="path_1" />
    <clipPath id="mask_1">
      <use xlink:href="#path_1" />
    </clipPath>
  </defs>
  <g id="linux">
    <path d="M0 0L448 0L448 512L0 512L0 0Z" id="Background" fill="#FFFFFF" fill-opacity="0" fill-rule="evenodd" stroke="none" />
    <g clip-path="url(#mask_1)">
      <path d="M220.8 123.3C221.8 123.8 222.6 125 223.8 125C224.9 125 226.6 124.6 226.7 123.5C226.9 122.1 224.8 121.2 223.5 120.6C221.8 119.9 219.6 119.6 218 120.5C217.6 120.7 217.2 121.2 217.4 121.6C217.7 122.9 219.7 122.7 220.8 123.3L220.8 123.3ZM198.9 125C200.1 125 200.9 123.8 201.9 123.3C203 122.7 205 122.9 205.4 121.7C205.6 121.3 205.2 120.8 204.8 120.6C203.2 119.7 201 120 199.3 120.7C198 121.3 195.9 122.2 196.1 123.6C196.2 124.6 197.9 125.1 198.9 125L198.9 125ZM420 403.8C416.4 399.8 414.7 392.2 412.8 384.1C411 376 408.9 367.3 402.3 361.7C401 360.6 399.7 359.6 398.3 358.8C397 358 395.6 357.3 394.2 356.8C403.4 329.5 399.8 302.3 390.5 277.7C379.1 247.6 359.2 221.3 344 203.3C326.9 181.8 310.3 161.4 310.6 131.3C311.1 85.4 315.7 0.1 234.8 0C132.4 -0.2 158 103.4 156.9 135.2C155.2 158.6 150.5 177 134.4 199.9C115.5 222.4 88.9 258.7 76.3 296.6C70.3 314.5 67.5 332.7 70.1 349.9C63.6 355.7 58.7 364.6 53.5 370.1C49.3 374.4 43.2 376 36.5 378.4C29.8 380.8 22.5 384.4 18 392.9C15.9 396.8 15.2 401 15.2 405.3C15.2 409.2 15.8 413.2 16.4 417.1C17.6 425.2 18.9 432.8 17.2 437.9C12 452.3 11.3 462.3 15 469.6C18.8 476.9 26.4 480.1 35.1 481.9C52.4 485.5 75.9 484.6 94.4 494.4C114.2 504.8 134.3 508.5 150.3 504.8C161.9 502.2 171.4 495.2 176.2 484.6C188.7 484.5 202.5 479.2 224.5 478C239.4 476.8 258.1 483.3 279.6 482.1C280.2 484.4 281 486.7 282.1 488.8L282.1 488.9C290.4 505.6 305.9 513.2 322.4 511.9C339 510.6 356.5 500.9 370.7 484C384.3 467.6 406.7 460.8 421.6 451.8C429 447.3 435 441.7 435.5 433.5C435.9 425.3 431.1 416.2 420 403.8L420 403.8ZM223.7 87.3C233.5 65.1 257.9 65.5 267.7 86.9C274.2 101.1 271.3 117.8 263.4 127.3C261.8 126.5 257.5 124.7 250.8 122.4C251.9 121.2 253.9 119.7 254.7 117.8C259.5 106 254.5 90.8 245.6 90.5C238.3 90 231.7 101.3 233.8 113.5C229.7 111.5 224.4 110 220.8 109.1C219.8 102.2 220.5 94.5 223.7 87.3L223.7 87.3ZM183 75.8C193.1 75.8 203.8 90 202.1 109.3C198.6 110.3 195 111.8 191.9 113.9C193.1 105 188.6 93.8 182.3 94.3C173.9 95 172.5 115.5 180.5 122.4C181.5 123.2 182.4 122.2 174.6 127.9C159 113.3 164.1 75.8 183 75.8L183 75.8ZM169.4 136.5C175.6 131.9 183 126.5 183.5 126C188.2 121.6 197 111.8 211.4 111.8C218.5 111.8 227 114.1 237.3 120.7C243.6 124.8 248.6 125.1 259.9 130C268.3 133.5 273.6 139.7 270.4 148.2C267.8 155.3 259.4 162.6 247.7 166.3C236.6 169.9 227.9 182.3 209.5 181.2C205.6 181 202.5 180.2 199.9 179.1C191.9 175.6 187.7 168.7 179.9 164.1C171.3 159.3 166.7 153.7 165.2 148.8C163.8 143.9 165.2 139.8 169.4 136.5L169.4 136.5ZM172.7 470.5C170 505.6 128.8 504.9 97.4 488.5C67.5 472.7 28.8 482 20.9 466.6C18.5 461.9 18.5 453.9 23.5 440.2L23.5 440C25.9 432.4 24.1 424 22.9 416.1C21.7 408.3 21.1 401.1 23.8 396.1C27.3 389.4 32.3 387 38.6 384.8C48.9 381.1 50.4 381.4 58.2 374.9C63.7 369.2 67.7 362 72.5 356.9C77.6 351.4 82.5 348.8 90.2 350C98.3 351.2 105.3 356.8 112.1 366L131.7 401.6C141.2 421.5 174.8 450 172.7 470.5L172.7 470.5ZM171.3 444.6C167.2 438 161.7 431 156.9 425C164 425 171.1 422.8 173.6 416.1C175.9 409.9 173.6 401.2 166.2 391.2C152.7 373 127.9 358.7 127.9 358.7C114.4 350.3 106.8 340 103.3 328.8C99.8 317.6 100.3 305.5 103 293.6C108.2 270.7 121.6 248.4 130.2 234.4C132.5 232.7 131 237.6 121.5 255.2C113 271.3 97.1 308.5 118.9 337.6C119.5 316.9 124.4 295.8 132.7 276.1C144.7 248.7 170 201.2 172 163.4C173.1 164.2 176.6 166.6 178.2 167.5C182.8 170.2 186.3 174.2 190.8 177.8C203.2 187.8 219.3 187 233.2 179C239.4 175.5 244.4 171.5 249.1 170C259 166.9 266.9 161.4 271.4 155C279.1 185.4 297.1 229.3 308.6 250.7C314.7 262.1 326.9 286.2 332.2 315.3C335.5 315.2 339.2 315.7 343.1 316.7C356.9 281 331.4 242.5 319.8 231.8C315.1 227.2 314.9 225.2 317.2 225.3C329.8 236.5 346.4 259 352.4 284.3C355.2 295.9 355.7 308 352.8 320C369.2 326.8 388.7 337.9 383.5 354.8C381.3 354.7 380.3 354.8 379.3 354.8C382.5 344.7 375.4 337.2 356.5 328.7C336.9 320.1 320.5 320.1 318.2 341.2C306.1 345.4 299.9 355.9 296.8 368.5C294 379.7 293.2 393.2 292.4 408.4C291.9 416.1 288.8 426.4 285.6 437.4C253.5 460.3 208.9 470.3 171.3 444.6L171.3 444.6ZM428.7 433.1C427.8 449.9 387.5 453 365.5 479.6C352.3 495.3 336.1 504 321.9 505.1C307.7 506.2 295.4 500.3 288.2 485.8C283.5 474.7 285.8 462.7 289.3 449.5C293 435.3 298.5 420.7 299.2 408.9C300 393.7 300.9 380.4 303.4 370.2C306 359.9 310 353 317.1 349.1C317.4 348.9 317.8 348.8 318.1 348.6C318.9 361.8 325.4 375.2 336.9 378.1C349.5 381.4 367.6 370.6 375.3 361.8C384.3 361.5 391 360.9 397.9 366.9C407.8 375.4 405 397.2 415 408.5C425.6 420.1 429 428 428.7 433.1L428.7 433.1ZM173.3 148.7C175.3 150.6 178 153.2 181.3 155.8C187.9 161 197.1 166.4 208.6 166.4C220.2 166.4 231.1 160.5 240.4 155.6C245.3 153 251.3 148.6 255.2 145.2C259.1 141.8 261.1 138.9 258.3 138.6C255.5 138.3 255.7 141.2 252.3 143.7C247.9 146.9 242.6 151.1 238.4 153.5C231 157.7 218.9 163.7 208.5 163.7C198.1 163.7 189.8 158.9 183.6 154C180.5 151.5 177.9 149 175.9 147.1C174.4 145.7 174 142.5 171.6 142.2C170.2 142.1 169.8 145.9 173.3 148.7L173.3 148.7Z" id="Shape" fill="#000000" fill-rule="evenodd" stroke="none" />
    </g>
  </g>
</svg>
